X: 160286
T: Peacock's Feather #1
S: De Danann
Z: B.Black
R: hornpipe
M: 4/4
L: 1/8
K: D
DE | FEED A2 AB | defd B2 ef | gefd edBd |\
AFDF E2 DE |
FEED A2 AB | defd B2 ef | gefd edBd |1\
AFDF D2 :|2 Adaf de ||
fg | afge fdec | defd (3BcB ef | gefd edBd |\
AFDF E2 DE |
FEED A2 AB | defd B2 ef | gefd edBd |1\
Adaf de :|2 AFEF D4 ||
